X:1
T:James Gibb editions
T:Lauda anima mea - Lasso
T:#
%%score [ 1 2 3 4 ]
L:1/8
Q:1/4=96
M:4/4
K:Bb
V:1 treble nm="Soprano" snm="S"
V:2 treble nm="Alto" snm="A"
V:3 treble-8 nm="Tenor" snm="T"
V:4 bass nm="Bass" snm="B"
V:1
"^Orlando di Lasso\n(1532-94)""^Lauda anima mea" z4 G4 | B2 B3 B B2 | B6 A2 | (d2 cB A3) A | %4
w: Lau-|da a- ni- ma|me- a,|Do\- * * * mi-|
[M:4/4] A2 A2 A2 A2 | B3 B c2 c2- | c2 (f3 edc | B4) c2 (d2- | dc c4 =B2) | c4 z4 | z4 z2 (G2- | %11
w: num. Lau- da- bo|Do- mi- num in|* vi\- * * *|* ta me\-||a;|psal\-|
 GABc d3 e | dcdB e2) (d2- | dcBA G2) _A2- | A2 G2 F4 | =E4 F4 | G2 B4 (A2- | AG G4) ^F2 | G4 z4 | %19
w: |* * * * * lam|* * * * * De\-|* o me-|o quam-|di- u fu\-|* * * e-|ro.|
 z2 B2 (GABG | _A2) G2 z2 z c- | c B2 =A B2 F2 | GE E2 E2 e2- | e2 c4 c2 | =B8 || %25
w: No- li\- * * *|* te con\-|* fi- de- re, con-|fi- de- re in prin\-|* ci- pi-|bus,|
[M:3/2][Q:1/4=144] c4 A2 A2 d4- | d2 G4 B2 B4 ||[M:4/4] x8 | %28
w: in fi- li- is|* ho- mi- num,||
[M:4/4][Q:1/4=144][Q:1/4=96][Q:1/4=144][Q:1/4=144][Q:1/4=144] d4 (c3 B/_A/ | G4) c4 | B2 B2 B4 | %31
w: in qui\- * *|* bus|non est sa-|
 G4 z2 G2- |[Q:1/4=96][Q:1/4=96][Q:1/4=96][Q:1/4=96] G2 E2 D4 | E4 z4 | z4 d4 | B4 A4 | G4 z4 | %37
w: lus, non|* est sa-|lus,|non|est sa-|lus,|
[Q:1/4=94] d4[Q:1/4=91] B2[Q:1/4=89] (A2- | %38
w: non est sa\-|
[Q:1/4=88] A[Q:1/4=87]G[Q:1/4=85] G3[Q:1/4=84] ^F/[Q:1/4=83]=E/[Q:1/4=82] F2) |[Q:1/4=82] G8 |] %40
w: |lus.|
V:2
 C4 E2 E2- | EE E2 E4- | E2 D2 (F3 E | FD G4) ^F2 |[M:4/4] ^F8 | z2 G2 G2 G2 | A3 A B2 F2 | G8 | %8
w: Lau- da a\-|* ni- ma me\-|* a, Do\- *|* * * mi-|num.|Lau- da- bo|Do- mi- num in|vi-|
 G8 | E4 D4 | z8 | (G3 A BF G2- | GABG B3 A | G2) F2 E4 | E4 C4- | C2 C2 D4 | E2 (G3 D F2) | %17
w: ta|me- a;||psal\- * * * *||* lam De-|o me\-|* o quam-|di- u * *|
 E2 C2 D4 | z2 D2 (ECDE | F2 G2 z4 | z2 E2 D2 C2 | F2 z F- F E2 D | ECB,B, C2 C2 | G2 _A4 G2 | %24
w: fu- e- ro.|No- li\- * * *|* te|con- fi- de-|re, con\- * fi- de-|re, con- fi- de- re in|prin- ci- pi-|
 G8 ||[M:3/2] =E4 F2 F2 A4 | B6 G2 G4 ||[M:4/4] x8 |[M:4/4] F4 _A3 G/F/ | EF G3 F/E/ F2) | %30
w: bus,|in fi- li- is|ho- mi- num,||in qui\- * *||
 G2 G2 E2 (D2- | DC C3 B,/A,/ B,2) | E2 (G3 A B2) | G4 F4 | (=E3 F G2) (D2- | D2 G4) F2 | %36
w: bus non est sa\-||lus, non * *|est sa-|lus, * * non|* * est|
 E2 D2 B2 (G2- | GF/E/ F2) F4 | D8- | D8 |] %40
w: sa- lus, non est|* * * * sa-|lus.||
V:3
 z4 c4 | g2 g3 g g2 | G2 G2 (d3 c | B2 AG d3) d |[M:4/4][K:treble-8] d4 z2 d2 | d2 d2 =e3 e | %6
w: Lau-|da, a- ni- ma|me- a, Do\- *|* * * * mi-|num. Lau-|da- bo Do- mi-|
 f2 c2 d4- | d2 (e3 d/c/ B2) | ((e3 d/c/ d4)) | c2 (G3 ABc | d3 e dcdB | e2) d2 z4 | z4 (G3 A | %13
w: num in vi\-|* ta * * *|me\- * * *|a; psal\- * * *||* lam,|psal\- *|
 Bc d2) B2 c2- | c2 B2 _A4 | G2 G2 B4- | B2 e2 (d3 c | B2 AG A2) A2 | G4 z4 | z2 d2 (ecde | %20
w: * * * lam De\-|* o me-|o quam- di\-|* u fu\- *|* * * * e-|ro.|No- li\- * * *|
 f2) g2 z2 e2 | d2 c2 B2 z B- | B _A2 G A2 A2 | B2 f4 e2 | d8 ||[M:3/2] g4 c2 c2 f4 | d6 e2 e4 || %27
w: * te con-|fi- de- re, con\-|* fi- de- re in|prin- ci- pi-|bus,|in fi- li- is|ho- mi- num,|
[M:4/4] x8 |[M:4/4][K:treble-8] z2 f4 (c2- | cd e4 dc | e2) d2 g4 | e4 d4 | c2 c2 (B3 A/G/ | %33
w: |in qui\-||* bus non|est sa-|lus, non est * *|
 B2) (c3 =B/A/ B2) | (c3 !courtesy!_B/A/ G4) | z4 d4 | B4 (G3 A | B2) A2 d4 | B4 A4 | G8 |] %40
w: * sa\- * * *|lus, * * *|non|est sa\- *|* lus, non|est sa-|lus.|
V:4
 z8 | z8 | z8 | z8 |[M:4/4] D,4 D,2 D,2 | G,3 G, C4 | F,4 (B,3 A, | G,F,E,D, C,2) G,2 | %8
w: ||||Lau- da- bo|Do- mi- num|in vi\- *|* * * * * ta|
 (C3 B,/A,/ G,4) | C,4 (G,3 A, | B,F, G,3 A,B,G, | C2) G,2 z4 | z2 (G,3 A,B,F, | %13
w: me\- * * *|a; psal\- *||* lam,|psal\- * * *|
 G,A, B,2) E,2 _A,2- | A,2 E,2 F,4 | C,4 z2 B,,2 | (E,3 F, G,2) D,2 | E,3 E, D,4 | %18
w: * * * lam De\-|* o me-|o quam-|di\- * * u|fu- e- ro.|
 z2 B,2 (G,A,B,G, | _A,2 G,2 z4 | z2 z C- C B,2 A, | B,2 F,2 (G,>A, B,)B,, | E,4 _A,,4 | %23
w: No- li\- * * *|* te|con\- * fi- de-|re, con- fi\- * * de-|re in|
 E,2 F,4 C,2 | G,8 ||[M:3/2] C,4 F,2 F,2 D,4 | G,6 E,2 E,4 ||[M:4/4] x8 |[M:4/4] B,4 F,4 | %29
w: prin- ci- pi-|bus,|in fi- li- is|ho- mi- num,||in qui\-|
 C3 B, _A,4) | G,8- | G,8 | z4 G,4 | E,4 D,4 | C,2 C4 B,2 | G,4 D,4 | G,4 E,4 | D,8- | D,8 | G,8 |] %40
w: |bus||non|est sa-|lus, non est|sa- lus,|non est|sa\-||lus.|

